images/11949218.svg

<?xml version="1.0" encoding="UTF-8"?>
<svg xmlns="http://www.w3.org/2000/svg" xmlns:xlink="http://www.w3.org/1999/xlink" width="300pt" height="300pt" viewBox="0 0 300 300" version="1.1">
<defs>
<g>
<symbol overflow="visible" id="glyph0-0">
<path style="stroke:none;" d="M 0.453125 1.59375 L 0.453125 -6.34375 L 4.953125 -6.34375 L 4.953125 1.59375 Z M 0.953125 1.09375 L 4.453125 1.09375 L 4.453125 -5.84375 L 0.953125 -5.84375 Z M 0.953125 1.09375 "/>
</symbol>
<symbol overflow="visible" id="glyph0-1">
<path style="stroke:none;" d="M 0.890625 -6.5625 L 2.078125 -6.5625 L 4.984375 -1.078125 L 4.984375 -6.5625 L 5.84375 -6.5625 L 5.84375 0 L 4.65625 0 L 1.75 -5.484375 L 1.75 0 L 0.890625 0 Z M 0.890625 -6.5625 "/>
</symbol>
<symbol overflow="visible" id="glyph0-2">
<path style="stroke:none;" d="M 0.890625 -6.5625 L 4.65625 -6.5625 L 4.65625 -5.8125 L 1.765625 -5.8125 L 1.765625 -3.875 L 4.375 -3.875 L 4.375 -3.140625 L 1.765625 -3.140625 L 1.765625 0 L 0.890625 0 Z M 0.890625 -6.5625 "/>
</symbol>
<symbol overflow="visible" id="glyph0-3">
<path style="stroke:none;" d="M 5.796875 -6.0625 L 5.796875 -5.125 C 5.492188 -5.394531 5.171875 -5.597656 4.828125 -5.734375 C 4.492188 -5.878906 4.140625 -5.953125 3.765625 -5.953125 C 3.015625 -5.953125 2.4375 -5.722656 2.03125 -5.265625 C 1.632812 -4.804688 1.4375 -4.144531 1.4375 -3.28125 C 1.4375 -2.414062 1.632812 -1.753906 2.03125 -1.296875 C 2.4375 -0.835938 3.015625 -0.609375 3.765625 -0.609375 C 4.140625 -0.609375 4.492188 -0.675781 4.828125 -0.8125 C 5.171875 -0.945312 5.492188 -1.15625 5.796875 -1.4375 L 5.796875 -0.5 C 5.484375 -0.289062 5.15625 -0.132812 4.8125 -0.03125 C 4.46875 0.0703125 4.097656 0.125 3.703125 0.125 C 2.710938 0.125 1.929688 -0.175781 1.359375 -0.78125 C 0.785156 -1.394531 0.5 -2.226562 0.5 -3.28125 C 0.5 -4.332031 0.785156 -5.160156 1.359375 -5.765625 C 1.929688 -6.378906 2.710938 -6.6875 3.703125 -6.6875 C 4.097656 -6.6875 4.46875 -6.632812 4.8125 -6.53125 C 5.164062 -6.425781 5.492188 -6.269531 5.796875 -6.0625 Z M 5.796875 -6.0625 "/>
</symbol>
<symbol overflow="visible" id="glyph0-4">
<path style="stroke:none;" d="M 0.84375 -6.84375 L 1.65625 -6.84375 L 1.65625 0 L 0.84375 0 Z M 0.84375 -6.84375 "/>
</symbol>
</g>
</defs>
<g id="surface37301">
<rect x="0" y="0" width="300" height="300" style="fill:rgb(100%,100%,100%);fill-opacity:1;stroke:none;"/>
<path style="fill:none;stroke-width:1;stroke-linecap:butt;stroke-linejoin:miter;stroke:rgb(0%,0%,0%);stroke-opacity:1;stroke-miterlimit:10;" d="M 131.316406 150.054688 L 131.316406 150.054688 M 134.136719 151.070312 L 134.316406 150.042969 M 136.960938 152.089844 L 137.316406 150.035156 M 139.78125 153.105469 L 140.316406 150.023438 M 142.601562 154.125 L 143.316406 150.015625 M 145.425781 155.144531 L 146.316406 150.007812 M 148.246094 156.160156 L 149.316406 149.996094 M 151.070312 157.179688 L 152.316406 149.988281 M 153.675781 158.121094 L 155.085938 149.980469 "/>
<path style="fill:none;stroke-width:1.2;stroke-linecap:butt;stroke-linejoin:miter;stroke:rgb(0%,0%,100%);stroke-opacity:1;stroke-miterlimit:10;" d="M 165.308594 133.347656 L 159.84375 143.699219 "/>
<path style="fill:none;stroke-width:1.2;stroke-linecap:butt;stroke-linejoin:miter;stroke:rgb(0%,0%,0%);stroke-opacity:1;stroke-miterlimit:10;" d="M 159.84375 143.699219 L 154.378906 154.050781 "/>
<path style="fill:none;stroke-width:1.2;stroke-linecap:butt;stroke-linejoin:miter;stroke:rgb(0%,0%,0%);stroke-opacity:1;stroke-miterlimit:10;" d="M 131.316406 150.054688 L 110.304688 160.378906 "/>
<path style="fill:none;stroke-width:1.2;stroke-linecap:butt;stroke-linejoin:miter;stroke:rgb(0%,0%,0%);stroke-opacity:1;stroke-miterlimit:10;" d="M 127.988281 126.882812 L 131.316406 150.054688 "/>
<path style="fill:none;stroke-width:1.2;stroke-linecap:butt;stroke-linejoin:miter;stroke:rgb(0%,0%,0%);stroke-opacity:1;stroke-miterlimit:10;" d="M 110.304688 160.378906 L 98.277344 141.480469 "/>
<path style="fill:none;stroke-width:1.2;stroke-linecap:butt;stroke-linejoin:miter;stroke:rgb(0%,0%,0%);stroke-opacity:1;stroke-miterlimit:10;" d="M 110.304688 160.378906 L 106.308594 183.441406 "/>
<path style="fill:none;stroke-width:1.2;stroke-linecap:butt;stroke-linejoin:miter;stroke:rgb(0%,0%,0%);stroke-opacity:1;stroke-miterlimit:10;" d="M 98.277344 141.480469 L 120.433594 149.039062 "/>
<path style="fill:none;stroke-width:1.2;stroke-linecap:butt;stroke-linejoin:miter;stroke:rgb(0%,0%,0%);stroke-opacity:1;stroke-miterlimit:10;" d="M 98.277344 141.480469 L 77.269531 151.804688 "/>
<path style="fill:none;stroke-width:1.2;stroke-linecap:butt;stroke-linejoin:miter;stroke:rgb(0%,0%,0%);stroke-opacity:1;stroke-miterlimit:10;" d="M 105.832031 119.328125 L 98.277344 141.480469 "/>
<path style="fill:none;stroke-width:1.2;stroke-linecap:butt;stroke-linejoin:miter;stroke:rgb(0%,0%,0%);stroke-opacity:1;stroke-miterlimit:10;" d="M 120.433594 149.039062 L 127.988281 126.882812 "/>
<path style="fill:none;stroke-width:1.2;stroke-linecap:butt;stroke-linejoin:miter;stroke:rgb(0%,0%,0%);stroke-opacity:1;stroke-miterlimit:10;" d="M 127.988281 126.882812 L 105.832031 119.328125 "/>
<path style="fill:none;stroke-width:1.2;stroke-linecap:butt;stroke-linejoin:miter;stroke:rgb(0%,0%,0%);stroke-opacity:1;stroke-miterlimit:10;" d="M 127.988281 126.882812 L 149 116.558594 "/>
<path style="fill:none;stroke-width:1.2;stroke-linecap:butt;stroke-linejoin:miter;stroke:rgb(0%,0%,0%);stroke-opacity:1;stroke-miterlimit:10;" d="M 149 116.558594 L 157.152344 124.953125 "/>
<path style="fill:none;stroke-width:1.2;stroke-linecap:butt;stroke-linejoin:miter;stroke:rgb(0%,0%,100%);stroke-opacity:1;stroke-miterlimit:10;" d="M 157.152344 124.953125 L 165.308594 133.347656 "/>
<path style=" stroke:none;fill-rule:nonzero;fill:rgb(0%,0%,0%);fill-opacity:1;" d="M 149 116.558594 L 157.066406 94.199219 L 148.925781 92.789062 Z M 149 116.558594 "/>
<path style="fill:none;stroke-width:1.2;stroke-linecap:butt;stroke-linejoin:miter;stroke:rgb(0%,0%,100%);stroke-opacity:1;stroke-miterlimit:10;" d="M 165.308594 133.347656 L 176.894531 131.683594 "/>
<path style="fill:none;stroke-width:1.2;stroke-linecap:butt;stroke-linejoin:miter;stroke:rgb(0%,0%,0%);stroke-opacity:1;stroke-miterlimit:10;" d="M 176.894531 131.683594 L 188.480469 130.023438 "/>
<path style=" stroke:none;fill-rule:nonzero;fill:rgb(100%,100%,100%);fill-opacity:1;" d="M 162.308594 127.847656 L 169.308594 127.847656 L 169.308594 138.847656 L 162.308594 138.847656 Z M 162.308594 127.847656 "/>
<g style="fill:rgb(0%,0%,100%);fill-opacity:1;">
  <use xlink:href="#glyph0-1" x="162.308594" y="136.510742"/>
</g>
<path style="fill:none;stroke-width:1.2;stroke-linecap:butt;stroke-linejoin:miter;stroke:rgb(0%,0%,0%);stroke-opacity:1;stroke-miterlimit:10;" d="M 188.480469 130.023438 L 202.945312 148.425781 "/>
<path style="fill:none;stroke-width:1.2;stroke-linecap:butt;stroke-linejoin:miter;stroke:rgb(0%,0%,0%);stroke-opacity:1;stroke-miterlimit:10;" d="M 202.945312 148.425781 L 194.242188 170.15625 "/>
<path style="fill:none;stroke-width:1.2;stroke-linecap:butt;stroke-linejoin:miter;stroke:rgb(0%,0%,0%);stroke-opacity:1;stroke-miterlimit:10;" d="M 207.1875 152.644531 L 200.226562 170.03125 "/>
<path style="fill:none;stroke-width:1.2;stroke-linecap:butt;stroke-linejoin:miter;stroke:rgb(0%,0%,0%);stroke-opacity:1;stroke-miterlimit:10;" d="M 226.117188 145.097656 L 202.945312 148.425781 "/>
<path style="fill:none;stroke-width:1.2;stroke-linecap:butt;stroke-linejoin:miter;stroke:rgb(0%,0%,0%);stroke-opacity:1;stroke-miterlimit:10;" d="M 194.242188 170.15625 L 208.707031 188.558594 "/>
<path style="fill:none;stroke-width:1.2;stroke-linecap:butt;stroke-linejoin:miter;stroke:rgb(0%,0%,0%);stroke-opacity:1;stroke-miterlimit:10;" d="M 208.707031 188.558594 L 231.878906 185.230469 "/>
<path style="fill:none;stroke-width:1.2;stroke-linecap:butt;stroke-linejoin:miter;stroke:rgb(0%,0%,0%);stroke-opacity:1;stroke-miterlimit:10;" d="M 210.242188 182.773438 L 228.78125 180.113281 "/>
<path style="fill:none;stroke-width:1.2;stroke-linecap:butt;stroke-linejoin:miter;stroke:rgb(0%,0%,0%);stroke-opacity:1;stroke-miterlimit:10;" d="M 231.878906 185.230469 L 240.585938 163.503906 "/>
<path style="fill:none;stroke-width:1.2;stroke-linecap:butt;stroke-linejoin:miter;stroke:rgb(0%,0%,0%);stroke-opacity:1;stroke-miterlimit:10;" d="M 231.878906 185.230469 L 246.347656 203.636719 "/>
<path style="fill:none;stroke-width:1.2;stroke-linecap:butt;stroke-linejoin:miter;stroke:rgb(0%,0%,0%);stroke-opacity:1;stroke-miterlimit:10;" d="M 240.585938 163.503906 L 226.117188 145.097656 "/>
<path style="fill:none;stroke-width:1.2;stroke-linecap:butt;stroke-linejoin:miter;stroke:rgb(0%,0%,0%);stroke-opacity:1;stroke-miterlimit:10;" d="M 234.808594 165.066406 L 223.234375 150.34375 "/>
<path style="fill:none;stroke-width:1.2;stroke-linecap:butt;stroke-linejoin:miter;stroke:rgb(0%,0%,0%);stroke-opacity:1;stroke-miterlimit:10;" d="M 246.347656 203.636719 L 253.578125 212.835938 "/>
<path style="fill:none;stroke-width:1.2;stroke-linecap:butt;stroke-linejoin:miter;stroke:rgb(20%,80%,80%);stroke-opacity:1;stroke-miterlimit:10;" d="M 253.578125 212.835938 L 260.8125 222.039062 "/>
<path style="fill:none;stroke-width:1.2;stroke-linecap:butt;stroke-linejoin:miter;stroke:rgb(0%,0%,0%);stroke-opacity:1;stroke-miterlimit:10;" d="M 246.347656 203.636719 L 237.144531 210.871094 "/>
<path style="fill:none;stroke-width:1.2;stroke-linecap:butt;stroke-linejoin:miter;stroke:rgb(20%,80%,80%);stroke-opacity:1;stroke-miterlimit:10;" d="M 237.144531 210.871094 L 227.941406 218.101562 "/>
<path style="fill:none;stroke-width:1.2;stroke-linecap:butt;stroke-linejoin:miter;stroke:rgb(0%,0%,0%);stroke-opacity:1;stroke-miterlimit:10;" d="M 246.347656 203.636719 L 255.546875 196.402344 "/>
<path style="fill:none;stroke-width:1.2;stroke-linecap:butt;stroke-linejoin:miter;stroke:rgb(20%,80%,80%);stroke-opacity:1;stroke-miterlimit:10;" d="M 255.546875 196.402344 L 264.75 189.167969 "/>
<path style=" stroke:none;fill-rule:nonzero;fill:rgb(100%,100%,100%);fill-opacity:1;" d="M 257.8125 216.539062 L 263.8125 216.539062 L 263.8125 227.539062 L 257.8125 227.539062 Z M 257.8125 216.539062 "/>
<g style="fill:rgb(20%,80%,80%);fill-opacity:1;">
  <use xlink:href="#glyph0-2" x="257.8125" y="225.202148"/>
</g>
<path style=" stroke:none;fill-rule:nonzero;fill:rgb(100%,100%,100%);fill-opacity:1;" d="M 221.941406 212.601562 L 227.941406 212.601562 L 227.941406 223.601562 L 221.941406 223.601562 Z M 221.941406 212.601562 "/>
<g style="fill:rgb(20%,80%,80%);fill-opacity:1;">
  <use xlink:href="#glyph0-2" x="221.941406" y="221.264648"/>
</g>
<path style=" stroke:none;fill-rule:nonzero;fill:rgb(100%,100%,100%);fill-opacity:1;" d="M 261.75 183.667969 L 267.75 183.667969 L 267.75 194.667969 L 261.75 194.667969 Z M 261.75 183.667969 "/>
<g style="fill:rgb(20%,80%,80%);fill-opacity:1;">
  <use xlink:href="#glyph0-2" x="261.75" y="192.331055"/>
</g>
<path style="fill:none;stroke-width:1.2;stroke-linecap:butt;stroke-linejoin:miter;stroke:rgb(0%,0%,0%);stroke-opacity:1;stroke-miterlimit:10;" d="M 152.996094 93.492188 L 174.96875 85.421875 "/>
<path style="fill:none;stroke-width:1.2;stroke-linecap:butt;stroke-linejoin:miter;stroke:rgb(0%,0%,0%);stroke-opacity:1;stroke-miterlimit:10;" d="M 153.292969 87.515625 L 170.871094 81.058594 "/>
<path style="fill:none;stroke-width:1.2;stroke-linecap:butt;stroke-linejoin:miter;stroke:rgb(0%,0%,0%);stroke-opacity:1;stroke-miterlimit:10;" d="M 135.019531 78.5 L 152.996094 93.492188 "/>
<path style="fill:none;stroke-width:1.2;stroke-linecap:butt;stroke-linejoin:miter;stroke:rgb(0%,0%,0%);stroke-opacity:1;stroke-miterlimit:10;" d="M 174.96875 85.421875 L 178.964844 62.355469 "/>
<path style="fill:none;stroke-width:1.2;stroke-linecap:butt;stroke-linejoin:miter;stroke:rgb(0%,0%,0%);stroke-opacity:1;stroke-miterlimit:10;" d="M 178.964844 62.355469 L 160.988281 47.363281 "/>
<path style="fill:none;stroke-width:1.2;stroke-linecap:butt;stroke-linejoin:miter;stroke:rgb(0%,0%,0%);stroke-opacity:1;stroke-miterlimit:10;" d="M 173.640625 65.085938 L 159.257812 53.089844 "/>
<path style="fill:none;stroke-width:1.2;stroke-linecap:butt;stroke-linejoin:miter;stroke:rgb(0%,0%,0%);stroke-opacity:1;stroke-miterlimit:10;" d="M 160.988281 47.363281 L 139.015625 55.433594 "/>
<path style="fill:none;stroke-width:1.2;stroke-linecap:butt;stroke-linejoin:miter;stroke:rgb(0%,0%,0%);stroke-opacity:1;stroke-miterlimit:10;" d="M 139.015625 55.433594 L 135.019531 78.5 "/>
<path style="fill:none;stroke-width:1.2;stroke-linecap:butt;stroke-linejoin:miter;stroke:rgb(0%,0%,0%);stroke-opacity:1;stroke-miterlimit:10;" d="M 144.042969 58.679688 L 140.84375 77.132812 "/>
<path style="fill:none;stroke-width:1.2;stroke-linecap:butt;stroke-linejoin:miter;stroke:rgb(0%,0%,0%);stroke-opacity:1;stroke-miterlimit:10;" d="M 77.269531 151.804688 L 57.824219 138.773438 "/>
<path style="fill:none;stroke-width:1.2;stroke-linecap:butt;stroke-linejoin:miter;stroke:rgb(0%,0%,0%);stroke-opacity:1;stroke-miterlimit:10;" d="M 72.257812 155.078125 L 56.699219 144.652344 "/>
<path style="fill:none;stroke-width:1.2;stroke-linecap:butt;stroke-linejoin:miter;stroke:rgb(0%,0%,0%);stroke-opacity:1;stroke-miterlimit:10;" d="M 75.703125 175.164062 L 77.269531 151.804688 "/>
<path style="fill:none;stroke-width:1.2;stroke-linecap:butt;stroke-linejoin:miter;stroke:rgb(0%,0%,0%);stroke-opacity:1;stroke-miterlimit:10;" d="M 57.824219 138.773438 L 47.316406 143.9375 "/>
<path style="fill:none;stroke-width:1.2;stroke-linecap:butt;stroke-linejoin:miter;stroke:rgb(0%,0%,100%);stroke-opacity:1;stroke-miterlimit:10;" d="M 47.316406 143.9375 L 36.8125 149.097656 "/>
<path style="fill:none;stroke-width:1.2;stroke-linecap:butt;stroke-linejoin:miter;stroke:rgb(0%,0%,100%);stroke-opacity:1;stroke-miterlimit:10;" d="M 36.8125 149.097656 L 36.03125 160.777344 "/>
<path style="fill:none;stroke-width:1.2;stroke-linecap:butt;stroke-linejoin:miter;stroke:rgb(0%,0%,0%);stroke-opacity:1;stroke-miterlimit:10;" d="M 36.03125 160.777344 L 35.25 172.453125 "/>
<path style="fill:none;stroke-width:1.2;stroke-linecap:butt;stroke-linejoin:miter;stroke:rgb(0%,0%,100%);stroke-opacity:1;stroke-miterlimit:10;" d="M 42.152344 151.800781 L 41.527344 161.144531 "/>
<path style="fill:none;stroke-width:1.2;stroke-linecap:butt;stroke-linejoin:miter;stroke:rgb(0%,0%,0%);stroke-opacity:1;stroke-miterlimit:10;" d="M 41.527344 161.144531 L 40.902344 170.488281 "/>
<path style=" stroke:none;fill-rule:nonzero;fill:rgb(100%,100%,100%);fill-opacity:1;" d="M 33.8125 143.597656 L 40.8125 143.597656 L 40.8125 154.597656 L 33.8125 154.597656 Z M 33.8125 143.597656 "/>
<g style="fill:rgb(0%,0%,100%);fill-opacity:1;">
  <use xlink:href="#glyph0-1" x="33.8125" y="152.260742"/>
</g>
<path style="fill:none;stroke-width:1.2;stroke-linecap:butt;stroke-linejoin:miter;stroke:rgb(0%,0%,0%);stroke-opacity:1;stroke-miterlimit:10;" d="M 35.25 172.453125 L 54.695312 185.488281 "/>
<path style="fill:none;stroke-width:1.2;stroke-linecap:butt;stroke-linejoin:miter;stroke:rgb(0%,0%,0%);stroke-opacity:1;stroke-miterlimit:10;" d="M 54.695312 185.488281 L 75.703125 175.164062 "/>
<path style="fill:none;stroke-width:1.2;stroke-linecap:butt;stroke-linejoin:miter;stroke:rgb(0%,0%,0%);stroke-opacity:1;stroke-miterlimit:10;" d="M 54.367188 179.511719 L 71.175781 171.253906 "/>
<path style="fill:none;stroke-width:1.2;stroke-linecap:butt;stroke-linejoin:miter;stroke:rgb(0%,0%,0%);stroke-opacity:1;stroke-miterlimit:10;" d="M 106.308594 183.441406 L 84.335938 191.515625 "/>
<path style="fill:none;stroke-width:1.2;stroke-linecap:butt;stroke-linejoin:miter;stroke:rgb(0%,0%,0%);stroke-opacity:1;stroke-miterlimit:10;" d="M 106.011719 189.417969 L 88.433594 195.875 "/>
<path style="fill:none;stroke-width:1.2;stroke-linecap:butt;stroke-linejoin:miter;stroke:rgb(0%,0%,0%);stroke-opacity:1;stroke-miterlimit:10;" d="M 124.285156 198.4375 L 106.308594 183.441406 "/>
<path style="fill:none;stroke-width:1.2;stroke-linecap:butt;stroke-linejoin:miter;stroke:rgb(0%,0%,0%);stroke-opacity:1;stroke-miterlimit:10;" d="M 84.335938 191.515625 L 82.339844 203.046875 "/>
<path style="fill:none;stroke-width:1.2;stroke-linecap:butt;stroke-linejoin:miter;stroke:rgb(0%,0%,100%);stroke-opacity:1;stroke-miterlimit:10;" d="M 82.339844 203.046875 L 80.339844 214.578125 "/>
<path style="fill:none;stroke-width:1.2;stroke-linecap:butt;stroke-linejoin:miter;stroke:rgb(0%,0%,100%);stroke-opacity:1;stroke-miterlimit:10;" d="M 80.339844 214.578125 L 89.328125 222.074219 "/>
<path style="fill:none;stroke-width:1.2;stroke-linecap:butt;stroke-linejoin:miter;stroke:rgb(0%,0%,0%);stroke-opacity:1;stroke-miterlimit:10;" d="M 89.328125 222.074219 L 98.316406 229.574219 "/>
<path style="fill:none;stroke-width:1.2;stroke-linecap:butt;stroke-linejoin:miter;stroke:rgb(0%,0%,100%);stroke-opacity:1;stroke-miterlimit:10;" d="M 85.664062 211.847656 L 92.855469 217.847656 "/>
<path style="fill:none;stroke-width:1.2;stroke-linecap:butt;stroke-linejoin:miter;stroke:rgb(0%,0%,0%);stroke-opacity:1;stroke-miterlimit:10;" d="M 92.855469 217.847656 L 100.046875 223.84375 "/>
<path style=" stroke:none;fill-rule:nonzero;fill:rgb(100%,100%,100%);fill-opacity:1;" d="M 77.339844 209.078125 L 84.339844 209.078125 L 84.339844 220.078125 L 77.339844 220.078125 Z M 77.339844 209.078125 "/>
<g style="fill:rgb(0%,0%,100%);fill-opacity:1;">
  <use xlink:href="#glyph0-1" x="77.339844" y="217.741211"/>
</g>
<path style="fill:none;stroke-width:1.2;stroke-linecap:butt;stroke-linejoin:miter;stroke:rgb(0%,0%,0%);stroke-opacity:1;stroke-miterlimit:10;" d="M 98.316406 229.574219 L 120.289062 221.5 "/>
<path style="fill:none;stroke-width:1.2;stroke-linecap:butt;stroke-linejoin:miter;stroke:rgb(0%,0%,0%);stroke-opacity:1;stroke-miterlimit:10;" d="M 98.316406 229.574219 L 96.320312 241.105469 "/>
<path style="fill:none;stroke-width:1.2;stroke-linecap:butt;stroke-linejoin:miter;stroke:rgb(0%,80%,0%);stroke-opacity:1;stroke-miterlimit:10;" d="M 96.320312 241.105469 L 94.320312 252.636719 "/>
<path style="fill:none;stroke-width:1.2;stroke-linecap:butt;stroke-linejoin:miter;stroke:rgb(0%,0%,0%);stroke-opacity:1;stroke-miterlimit:10;" d="M 120.289062 221.5 L 124.285156 198.4375 "/>
<path style="fill:none;stroke-width:1.2;stroke-linecap:butt;stroke-linejoin:miter;stroke:rgb(0%,0%,0%);stroke-opacity:1;stroke-miterlimit:10;" d="M 115.261719 218.253906 L 118.460938 199.800781 "/>
<path style=" stroke:none;fill-rule:nonzero;fill:rgb(100%,100%,100%);fill-opacity:1;" d="M 89.320312 247.136719 L 99.320312 247.136719 L 99.320312 258.136719 L 89.320312 258.136719 Z M 89.320312 247.136719 "/>
<g style="fill:rgb(0%,80%,0%);fill-opacity:1;">
  <use xlink:href="#glyph0-3" x="89.320312" y="255.799805"/>
  <use xlink:href="#glyph0-4" x="95.833984" y="255.799805"/>
</g>
</g>
</svg>

<svg xmlns="http://www.w3.org/2000/svg" xmlns:xlink="http://www.w3.org/1999/xlink" width="300pt" height="300pt" viewBox="0 0 300 300"><defs><symbol overflow="visible"><path d="M.453 1.594v-7.938h4.5v7.938zm.5-.5h3.5v-6.938h-3.5zm0 0"/></symbol><symbol overflow="visible" id="a"><path d="M.89-6.563H2.08l2.906 5.485v-5.484h.86V0H4.656L1.75-5.484V0H.89zm0 0"/></symbol><symbol overflow="visible" id="b"><path d="M.89-6.563h3.766v.75h-2.89v1.938h2.61v.734h-2.61V0H.89zm0 0"/></symbol><symbol overflow="visible" id="c"><path d="M5.797-6.063v.938c-.305-.27-.625-.473-.97-.61-.335-.144-.686-.218-1.06-.218-.75 0-1.33.23-1.736.687-.397.46-.592 1.12-.592 1.985 0 .866.195 1.526.593 1.983.408.46.986.688 1.736.688.375 0 .726-.066 1.062-.203.344-.132.664-.343.97-.625V-.5c-.314.21-.642.367-.986.47-.343.1-.714.155-1.11.155-.99 0-1.772-.3-2.343-.906C.784-1.396.5-2.228.5-3.28c0-1.052.285-1.88.86-2.486.57-.613 1.35-.92 2.343-.92.395-.002.766.053 1.11.155.35.104.68.26.984.468zm0 0"/></symbol><symbol overflow="visible" id="d"><path d="M.844-6.844h.812V0H.844zm0 0"/></symbol></defs><g><path fill="#fff" d="M0 0h300v300H0z"/><path d="M131.316 150.055m2.82 1.015l.18-1.027m2.645 2.047l.356-2.055m2.465 3.07l.536-3.082m2.286 4.102l.714-4.11m2.11 5.13l.89-5.137m1.93 6.152l1.07-6.164m1.754 7.184l1.246-7.192m1.36 8.133l1.41-8.14" stroke="#000" stroke-miterlimit="10" fill="none"/><path d="M165.31 133.348l-5.466 10.35" stroke-width="1.2" stroke="#00f" stroke-miterlimit="10" fill="none"/><path d="M159.844 143.7l-5.465 10.35M131.316 150.055l-21.01 10.324M127.988 126.883l3.328 23.172M110.305 160.38l-12.028-18.9M110.305 160.38l-3.996 23.06M98.277 141.48l22.157 7.56M98.277 141.48L77.27 151.805M105.832 119.328l-7.555 22.152M120.434 149.04l7.554-22.157M127.988 126.883l-22.156-7.555M127.988 126.883L149 116.56M149 116.56l8.152 8.393" stroke-width="1.2" stroke="#000" stroke-miterlimit="10" fill="none"/><path d="M157.152 124.953l8.157 8.395" stroke-width="1.2" stroke="#00f" stroke-miterlimit="10" fill="none"/><path d="M149 116.56l8.066-22.36-8.14-1.41zm0 0"/><path d="M165.31 133.348l11.585-1.664" stroke-width="1.2" stroke="#00f" stroke-miterlimit="10" fill="none"/><path d="M176.895 131.684l11.585-1.66" stroke-width="1.2" stroke="#000" stroke-miterlimit="10" fill="none"/><path d="M162.31 127.848h7v11h-7zm0 0" fill="#fff"/><use xlink:href="#a" x="162.309" y="136.511" fill="#00f"/><path d="M188.48 130.023l14.465 18.403M202.945 148.426l-8.703 21.73M207.188 152.645l-6.96 17.386M226.117 145.098l-23.172 3.328M194.242 170.156l14.465 18.403M208.707 188.56l23.172-3.33M210.242 182.773l18.54-2.66M231.88 185.23l8.706-21.726M231.88 185.23l14.468 18.407M240.586 163.504l-14.47-18.406M234.81 165.066l-11.576-14.722M246.348 203.637l7.23 9.2" stroke-width="1.2" stroke="#000" stroke-miterlimit="10" fill="none"/><path d="M253.578 212.836l7.234 9.203" stroke-width="1.2" stroke="#3cc" stroke-miterlimit="10" fill="none"/><path d="M246.348 203.637l-9.203 7.234" stroke-width="1.2" stroke="#000" stroke-miterlimit="10" fill="none"/><path d="M237.145 210.87l-9.204 7.232" stroke-width="1.2" stroke="#3cc" stroke-miterlimit="10" fill="none"/><path d="M246.348 203.637l9.2-7.235" stroke-width="1.2" stroke="#000" stroke-miterlimit="10" fill="none"/><path d="M255.547 196.402l9.203-7.234" stroke-width="1.2" stroke="#3cc" stroke-miterlimit="10" fill="none"/><path d="M257.813 216.54h6v11h-6zm0 0" fill="#fff"/><use xlink:href="#b" x="257.813" y="225.202" fill="#3cc"/><path d="M221.94 212.602h6v11h-6zm0 0" fill="#fff"/><use xlink:href="#b" x="221.941" y="221.265" fill="#3cc"/><path d="M261.75 183.668h6v11h-6zm0 0" fill="#fff"/><use xlink:href="#b" x="261.75" y="192.331" fill="#3cc"/><path d="M152.996 93.492l21.973-8.07M153.293 87.516l17.578-6.457M135.02 78.5l17.976 14.992M174.97 85.422l3.995-23.067M178.965 62.355l-17.977-14.992M173.64 65.086L159.26 53.09M160.988 47.363l-21.972 8.07M139.016 55.434L135.02 78.5M144.043 58.68l-3.2 18.453M77.27 151.805l-19.446-13.032M72.258 155.078l-15.56-10.426M75.703 175.164l1.567-23.36M57.824 138.773l-10.508 5.165" stroke-width="1.2" stroke="#000" stroke-miterlimit="10" fill="none"/><path d="M47.316 143.938l-10.504 5.16M36.813 149.098l-.782 11.68" stroke-width="1.2" stroke="#00f" stroke-miterlimit="10" fill="none"/><path d="M36.03 160.777l-.78 11.676" stroke-width="1.2" stroke="#000" stroke-miterlimit="10" fill="none"/><path d="M42.152 151.8l-.625 9.345" stroke-width="1.2" stroke="#00f" stroke-miterlimit="10" fill="none"/><path d="M41.527 161.145l-.625 9.343" stroke-width="1.2" stroke="#000" stroke-miterlimit="10" fill="none"/><path d="M33.813 143.598h7v11h-7zm0 0" fill="#fff"/><use xlink:href="#a" x="33.813" y="152.261" fill="#00f"/><path d="M35.25 172.453l19.445 13.035M54.695 185.488l21.008-10.324M54.367 179.512l16.81-8.258M106.31 183.44l-21.974 8.076M106.012 189.418l-17.578 6.457M124.285 198.438L106.31 183.44M84.336 191.516l-1.996 11.53" stroke-width="1.2" stroke="#000" stroke-miterlimit="10" fill="none"/><path d="M82.34 203.047l-2 11.53M80.34 214.578l8.988 7.496" stroke-width="1.2" stroke="#00f" stroke-miterlimit="10" fill="none"/><path d="M89.328 222.074l8.988 7.5" stroke-width="1.2" stroke="#000" stroke-miterlimit="10" fill="none"/><path d="M85.664 211.848l7.19 6" stroke-width="1.2" stroke="#00f" stroke-miterlimit="10" fill="none"/><path d="M92.855 217.848l7.192 5.996" stroke-width="1.2" stroke="#000" stroke-miterlimit="10" fill="none"/><path d="M77.34 209.078h7v11h-7zm0 0" fill="#fff"/><use xlink:href="#a" x="77.34" y="217.741" fill="#00f"/><path d="M98.316 229.574l21.973-8.074M98.316 229.574l-1.996 11.53" stroke-width="1.2" stroke="#000" stroke-miterlimit="10" fill="none"/><path d="M96.32 241.105l-2 11.532" stroke-width="1.2" stroke="#0c0" stroke-miterlimit="10" fill="none"/><path d="M120.29 221.5l3.995-23.063M115.262 218.254l3.2-18.453" stroke-width="1.2" stroke="#000" stroke-miterlimit="10" fill="none"/><path d="M89.32 247.137h10v11h-10zm0 0" fill="#fff"/><g fill="#0c0"><use xlink:href="#c" x="89.32" y="255.8"/><use xlink:href="#d" x="95.834" y="255.8"/></g></g></svg>
